X:1
T:We’ll Give Our Hearts to Jesus
T:William Howard Doane
T:We’ll Give Our Hearts to Jesus
T:Public Domain
T:Public Domain
C:William Howard Doane
Z:Public Domain
%%score ( 1 2 ) ( 3 4 )
L:1/8
M:2/4
K:Eb
V:1 treble 
V:2 treble 
V:3 bass 
V:4 bass 
V:1
 x4 |: E2 | [EG][EG] [EG][EG] | [EG] [GB]2 [GB] | [GB][FA] [DF][Ac] | [GB]3 E | [EG][EG] [EG][EG] | %7
w: |1.~We’ll|our hearts to Je-|sus, And learn|His name to praise,|The bless-|Bi- ble tells us,|
w: |2.~We’ll|our hearts to Je-|sus, In sun-|ny child- hood’s hours,|Where life|like the spring time|
w: |3.~We’ll|our hearts to Je-|sus, Our best|and dear- est friend,|He like|gentle shep- herd, Will|
w: |4.~In|and frag- rant pas-|tures, His lit-|tle flock will lead,|Be- side|qui- et wa- ters,|
w: |5.~We’ll|our hearts to Je-|sus, Who died|that we might live,|Our hearts,|weak and sin- ful,|
w: |6.~The|ple prayer of child-|hood, Our God|will ne’er des- pise,|A low-|con- trite spir- it|
 [EG] [GB]2 [GB] | [Ac][GB] [GB][EG] | [DF]3 :| [GB][FA] [EG][DF] | E3"^Refrain" || [GB] | %13
w: How plea- sant|are His ways. *|||||
w: And ~ ~|~ ~ ~ full|of|buds and flowers. *|||
w: guide us to|the end. ~ ~|~|~ ~ ~ And|when|safe-|
w: Sup\- ~ ~|~ ~ ~ ply-|ing|all we need. *|||
w: Are all we|have to give. *|||||
w: Is ~ ~|~ ~ ~ pre-|cious|in His eyes. *|||
 [Ac][Ac] [Ac][Ae] | [GB]2 [EG][GB] | [Ac][Ac] [Ac][Ae] | [GB]3 E | [EG][EG] [EG][EG] | %18
w: |||||
w: |||||
w: ly an- chor On|Ca- naan’s hap-|py shore, To Him|be all|glo- ry, And praise|
w: |||||
w: |||||
w: |||||
 [EG] [GB]2 [Ac] | [GB][FA] [EG][DF] | E2 |] %21
w: |||
w: |||
w: for- ev- er|more. * * *||
w: |||
w: |||
w: |||
V:2
 x4 |: E2 | x4 | x4 | x4 | x3 E | x4 | x4 | x4 | x3 :| x4 | E3 || x | x4 | x4 | x4 | x3 E | x4 | %18
w: |give||||èd|||||||||||||
w: |give||||is|||||||||||||
w: |give||||a||||||we|||||the||
w: |green||||the|||||||||||||
w: |give||||though|||||||||||||
w: |sim-||||ly|||||||||||||
 x4 | x4 | E2 |] %21
w: |||
w: |||
w: |||
w: |||
w: |||
w: |||
V:3
 x4 |: [E,G,]2 | [E,B,][E,B,] [E,B,][E,B,] | [E,B,] [E,E]2 [E,E] | [B,,E][B,,D] [B,,B,][B,,B,] | %5
 [E,E]3 [E,G,] | [E,B,][E,B,] [E,B,][E,B,] | [E,B,] [E,E]2 [E,E] | [E,E][E,E] [E,E][G,B,] | B,3 :| %10
 [B,,B,][B,,B,] [B,,A,][B,,A,] | [E,G,]3 || [E,E] | [A,,E][A,,E] [A,,E][C,E] | [E,E]2 [E,B,][E,E] | %15
 [A,,E][A,,E] [A,,E][C,E] | [E,E]3 [E,G,] | [E,B,][E,B,] [E,B,][E,B,] | [E,B,] [E,E]2 [A,E] | %19
 B,B, [B,,B,][B,,A,] | [E,G,]2 |] %21
V:4
 x4 |: x2 | x4 | x4 | x4 | x4 | x4 | x4 | x4 | B,3 :| x4 | x3 || x | x4 | x4 | x4 | x4 | x4 | x4 | %19
 B,B, x2 | x2 |] %21

